icons/key-17.svg

<svg width="16" height="17" viewBox="0 0 16 17" fill="none" xmlns="http://www.w3.org/2000/svg">
<path fill-rule="evenodd" clip-rule="evenodd" d="M6.875 6.29138C6.875 4.63453 8.21814 3.29138 9.875 3.29138C11.5318 3.29138 12.875 4.63453 12.875 6.29138C12.875 7.94824 11.5318 9.29138 9.875 9.29138C9.54147 9.29138 9.22181 9.23718 8.92358 9.13754C8.72137 9.06997 8.49834 9.12255 8.34759 9.2733L7.5795 10.0414H6.6875C6.37684 10.0414 6.125 10.2932 6.125 10.6039V11.4959L6.0795 11.5414H5.1875C4.87684 11.5414 4.625 11.7932 4.625 12.1039V12.9959L4.5795 13.0414H3.3125C3.20895 13.0414 3.125 12.9575 3.125 12.8539V11.5869L6.89308 7.81879C7.04383 7.66804 7.09641 7.44502 7.02885 7.2428C6.9292 6.94457 6.875 6.62488 6.875 6.29138ZM9.875 2.16638C7.59682 2.16638 5.75 4.0132 5.75 6.29138C5.75 6.62342 5.78935 6.94688 5.8638 7.25709L2.16475 10.9562C2.05926 11.0616 2 11.2047 2 11.3539V12.8539C2 13.5788 2.58763 14.1664 3.3125 14.1664H4.8125C4.96168 14.1664 5.10476 14.1071 5.21025 14.0016L5.58525 13.6266C5.69074 13.5212 5.75 13.3781 5.75 13.2289V12.6664H6.3125C6.46168 12.6664 6.60476 12.6071 6.71025 12.5016L7.08525 12.1266C7.19074 12.0212 7.25 11.8781 7.25 11.7289V11.1664H7.8125C7.96168 11.1664 8.10476 11.1071 8.21025 11.0016L8.90929 10.3026C9.2195 10.377 9.54297 10.4164 9.875 10.4164C12.1532 10.4164 14 8.56956 14 6.29138C14 4.0132 12.1532 2.16638 9.875 2.16638ZM10.25 6.66638C10.6642 6.66638 11 6.33059 11 5.91638C11 5.50217 10.6642 5.16638 10.25 5.16638C9.83577 5.16638 9.5 5.50217 9.5 5.91638C9.5 6.33059 9.83577 6.66638 10.25 6.66638Z" fill="#272431"/>
</svg>

<svg xmlns="http://www.w3.org/2000/svg" width="16" height="17" viewBox="0 0 16 17"><path fill-rule="evenodd" d="M6.875 6.291a3 3 0 112.049 2.847.562.562 0 00-.576.135l-.769.768h-.891a.562.562 0 00-.563.563v.892l-.045.045h-.893a.562.562 0 00-.562.563v.892l-.045.045H3.312a.187.187 0 01-.187-.187v-1.267l3.768-3.768a.562.562 0 00.136-.576 2.996 2.996 0 01-.154-.952zm3-4.125a4.125 4.125 0 00-4.011 5.091l-3.7 3.7a.562.562 0 00-.164.397v1.5c0 .725.588 1.312 1.313 1.312h1.5a.562.562 0 00.397-.164l.375-.375a.562.562 0 00.165-.398v-.563h.563a.562.562 0 00.397-.164l.375-.375a.562.562 0 00.165-.398v-.563h.563a.562.562 0 00.397-.164l.7-.7a4.125 4.125 0 10.966-8.136zm.375 4.5a.75.75 0 100-1.5.75.75 0 000 1.5z"/></svg>
